X:1
T:Title
%%score { ( 1 3 ) | 2 }
L:1/8
M:4/4
K:Bb
V:1 treble nm="Grand Piano"
V:3 treble 
V:2 bass 
V:1
 z4 z2[Q:1/4=100] [B,D][CE] | [DF]<[DF] [DF]>[DF] F2 G>A | [DB]6 z2 | c<c c>=B c2 d>c | %4
 [DB]6[K:bass] z2 | [DF]<[DF] [DF]>[_D=E] [=DF]2 [DB]>[Ec] | [Fd]6 z2 | %7
 [FA]>[FA] [Ac][GB] [FA]2 [=EG]2 |[M:3/4] F6 |[M:1/4] FF |[M:4/4] e3 e e3 e | e>d d>d d2 [DF][DF] | %12
 [Fd]3 [Fd] [Fd]3 [Fd] |[M:9/8] dcc- c/c/ c2- cF>E |[M:3/4] D>[DF] [FB]>c d2 |[M:1/4] e>d | %16
[M:9/8] c>BB- B/G/ [GB]2- [GB]G>G |[M:4/4] F2 A>B c2 B>A |[M:3/4] [DB]6 |] %19
V:2
 z4 z2 [B,,F,][B,,F,] | [B,,B,]<[B,,B,] [B,,B,]>[B,,B,] [F,A,C]2 [F,B,E]>[F,CE] | %2
 [B,,B,]2 B,,>B,, B,,2 [F,CE][F,B,D] | [F,A,E]<[F,A,E] [F,A,E]>[F,_A,D] [F,=A,E]2 [F,A,F]>[F,A,E] | %4
 [B,,B,]2 B,,>B,, B,,2 [B,,F,B,][B,,F,] | %5
 [B,,B,]<[B,,B,] [B,,B,]>[B,,B,] [B,,B,]2 [B,,B,]>[B,,B,] | %6
 [B,,B,]2 B,,>B,, B,,2 (3:2:2[B,,B,]2 [B,,F,] | [C,F,]>[C,C] [C,C][C,C] [C,C]2 [C,B,]2 | %8
[M:3/4] [F,A,]6 |[M:1/4] [F,A,][F,A,] |[M:4/4][K:treble] [F,A,F]3 [G,B,F] [A,CF]3 [F,CF] | %11
 [B,G]>[B,F] [B,F]>[B,F] [B,F]2[K:bass] [B,,B,][B,,B,] | [B,,B,]3 [C,B,] [D,B,]3 [B,,B,] | %13
[M:9/8] [F,B,F][F,A,F][F,A,F]- [F,A,F]/[E,A,F]/ [F,A,F]2- [F,A,F][F,A,C]>[A,C] | %14
[M:3/4] [B,,B,]>[B,,B,] [D,B,]>[K:treble][F,A,F] [B,F]2 |[M:1/4] [B,G]>[B,F] | %16
[M:9/8][K:bass] [E,G,E]>[E,G,E][E,G,E]- [E,G,E]/[E,B,E]/ [E,E]2- [E,E][E,B,E]>[E,B,E] | %17
[M:4/4] [F,B,D]2 [F,CF]>[F,DF] [F,EF]2 [F,DF]>[F,CE] |[M:3/4] [B,,B,]6 |] %19
V:3
 x8 | x8 | z2 B,>B, B,2 AB | x8 | z2[K:bass] B,>B, B,2 D[CE] | x8 | z2 B,>B, B,2 (3[Fd][Ec][DB] | %7
 x8 |[M:3/4] x6 |[M:1/4] x2 |[M:4/4] x8 | x8 | x8 |[M:9/8] x9 |[M:3/4] x6 |[M:1/4] x2 |[M:9/8] x9 | %17
[M:4/4] x8 |[M:3/4] x6 |] %19

